app/images/brand-logo5.svg

<svg width="369" height="90" viewBox="0 0 369 90" fill="none" xmlns="http://www.w3.org/2000/svg">
    <g clip-path="url(#clip0_60:75)">
        <path fill-rule="evenodd" clip-rule="evenodd" d="M136.977 31.6133L137.039 31.6751V11.3967C136.851 9.82788 136.032 8.19533 134.459 7.37808C133.01 6.68835 131.25 6.87576 129.549 6.81393V1.47772H150.445V6.81393C148.557 6.87576 146.416 6.50095 145.222 8.06975C143.901 9.57672 143.837 11.6266 143.837 13.5934V47.6838H135.906L112.558 14.9129L112.494 14.8492L112.558 38.7714C112.558 40.1934 113.25 41.3449 114.509 41.9708C116.081 42.6007 118.034 42.2877 119.858 42.2877V47.6838H98.5229V42.2896C100.62 42.2896 103.558 42.705 104.44 40.7807C105.024 39.6589 105.295 38.4011 105.226 37.1389V11.1455C104.91 9.76413 104.44 8.38273 103.055 7.56742C101.796 6.75211 100.097 6.81393 98.5229 6.81393V1.47772H116.209L136.977 31.6133ZM267.635 31.6133L267.699 31.6751V11.3967C267.509 9.82788 266.692 8.19533 265.119 7.37808C263.671 6.68835 261.908 6.87576 260.21 6.81393V1.47772H281.105V6.81393C279.217 6.87576 277.077 6.50095 275.882 8.06975C274.561 9.57672 274.497 11.6266 274.497 13.5934V47.6838H266.564L243.217 14.9129L243.153 14.8492L243.217 38.7714C243.217 40.1934 243.908 41.3449 245.165 41.9708C246.738 42.6007 248.69 42.2877 250.518 42.2877V47.6838H229.179V42.2896C231.279 42.2896 234.215 42.705 235.096 40.7807C235.681 39.6592 235.953 38.4012 235.882 37.1389V11.1455C235.568 9.76413 235.096 8.38273 233.711 7.56742C232.452 6.75211 230.754 6.81393 229.179 6.81393V1.47772H246.867L267.635 31.6133ZM225.341 6.81393C223.015 6.75211 220.245 6.37344 218.922 8.6339C218.295 9.7023 218.324 11.0837 218.26 12.4013V38.3927C218.388 39.7741 218.986 41.0918 220.245 41.7815C221.754 42.6007 223.642 42.1582 225.341 42.3476V47.6838H201.488V42.2896C203.628 42.3495 206.084 42.7282 207.592 41.0338C208.224 40.1547 208.473 39.1482 208.537 38.0817V10.7069C208.348 9.38931 207.846 7.94417 206.525 7.25444C205.621 6.81394 203.155 6.81393 201.521 6.81393V1.47772H225.341V6.81393ZM327.678 20.7515H322.265C322.582 15.6664 322.015 10.6432 317.483 8.006C316.224 7.31627 314.775 6.93758 313.265 6.812H300.724V20.6877C303.856 20.6877 307.867 20.9389 309.36 18.5529C310.052 16.9222 309.868 14.8183 309.868 12.9036H314.713V34.5016H309.868C309.74 31.8026 310.307 28.7249 307.728 27.218C306.215 26.4336 303.147 26.4645 300.726 26.4645V42.2877H315.343C317.862 42.0983 320.502 40.9662 321.573 38.4565C322.582 36.0086 322.265 31.9282 322.265 28.4428H327.678V47.6838H283.811V42.2896C286.267 42.1621 289.224 42.9156 290.549 40.402C291.052 39.1481 291.017 37.703 291.017 36.2598V10.7688C291.017 9.40284 290.295 8.06975 288.974 7.31626C287.461 6.56278 285.509 6.93952 283.811 6.81393V1.47772H327.678V20.7515Z" fill="#303030"/>
        <path fill-rule="evenodd" clip-rule="evenodd" d="M95.7533 36.6984C100.095 30.1701 100.411 19.8087 96.3828 13.0292C93.6752 7.94418 88.4538 3.36143 83.1645 1.47578C74.3543 -1.9149 64.0954 0.471146 57.5492 7.06318C50.6254 13.6552 48.3594 24.2658 51.8843 33.1183C55.0315 41.2193 63.466 47.9369 72.0883 48.6266C81.8437 49.5675 90.5299 44.9867 95.7533 36.6984ZM189.28 1.47773L187.642 3.29961C181.599 -0.218594 172.599 -1.15948 165.989 1.72695C157.241 5.05388 150.443 14.032 150.065 23.325C149.372 32.7416 153.968 41.4685 162.4 45.8001C169.386 49.5675 180.59 50.1336 187.073 45.1104L188.206 47.6838H195.224V32.6179L195.507 31.111C196.202 29.2964 198.083 29.2982 199.869 29.2999C200.182 29.3002 200.492 29.3005 200.792 29.291V23.9548H178.578V29.291C179.144 29.3329 179.738 29.3189 180.333 29.305C181.522 29.2771 182.711 29.2491 183.675 29.6678C184.197 29.8637 184.652 30.2041 184.987 30.649C185.321 31.0939 185.521 31.6248 185.564 32.1794C185.564 32.444 185.568 32.7319 185.572 33.034C185.599 35.075 185.635 37.7674 184.557 38.3328C181.032 42.2896 175.117 43.2943 170.333 41.3468C164.606 38.9627 161.523 32.9966 160.642 27.4092C159.699 20.0618 161.523 12.7163 167.817 8.38468C171.846 5.87306 178.202 5.55814 182.105 8.4465C185.63 10.9601 187.014 14.7256 187.014 18.9335H193.812V1.47773H189.28ZM362.698 3.51153C362.473 3.88212 362.25 4.24969 362.043 4.61725C360.908 3.80001 359.837 3.04652 358.641 2.48237C352.222 -0.718979 342.781 -0.216648 337.118 4.24051C332.462 7.88236 331.201 13.6591 332.522 19.1827C334.552 25.8509 341.209 27.094 347.216 28.2158C348.108 28.3824 348.986 28.5463 349.832 28.7249C350.588 28.9077 351.395 29.0551 352.219 29.2054C355.922 29.8815 359.942 30.6155 360.972 34.8784C361.412 37.6431 359.777 40.091 357.511 41.3468C352.979 43.671 347.125 42.2896 343.224 39.7123C339.445 37.39 337.811 33.5608 337.687 29.4166H332.02V47.6857H336.552L337.687 44.7356C340.077 45.9914 342.533 47.1235 345.176 47.8751C351.784 49.5695 360.217 49.5695 365.191 44.3627C369.031 40.4059 369.723 34.1906 368.274 28.98C365.709 22.0325 358.829 20.7344 352.384 19.5184C351.083 19.2729 349.8 19.0307 348.573 18.7461C346.497 18.4292 344.545 17.9288 342.782 16.8604C341.338 15.8558 340.393 14.4106 340.393 12.7163C340.393 10.9581 341.274 9.5149 342.782 8.4465C346.183 6.12422 351.467 6.56472 355.118 8.13352C359.274 9.95348 361.536 14.287 362.043 18.5548H367.706V1.47773C367.016 1.47773 366.282 1.49516 365.581 1.51179C364.942 1.52697 364.331 1.54148 363.806 1.54148C363.484 2.21777 363.088 2.8692 362.698 3.51153ZM29.3406 6.82882C30.125 6.86617 30.9055 6.90333 31.6202 6.81394V1.47773H6.63428V6.81394C7.22158 6.83703 7.82671 6.83425 8.43313 6.83147C9.45052 6.8268 10.4715 6.82211 11.418 6.93953C12.4251 7.12693 13.6511 7.75485 13.8409 8.88508V36.3854C13.8409 37.8305 13.808 39.3375 13.1165 40.5315C12.036 42.3806 9.9861 42.3383 7.96544 42.2965C7.51596 42.2873 7.06793 42.278 6.63234 42.2896V47.6857H48.1096V27.8459H42.9481C42.9481 28.1563 42.9495 28.4674 42.9509 28.7785C42.9628 31.4266 42.9746 34.0808 42.1289 36.3854C40.0339 42.5617 33.9008 42.4181 28.0923 42.2821C26.5766 42.2466 25.0831 42.2117 23.6892 42.2896V11.9628C23.6272 10.7688 23.6892 9.51298 24.3186 8.57208C25.3561 6.63914 27.3611 6.73459 29.3406 6.82882ZM86.3117 34.3761C89.5867 27.6585 89.1452 17.8631 84.865 11.7734C82.7888 8.82323 79.8295 6.93951 76.5564 6.43719C71.333 5.6837 66.6751 8.13351 64.0315 12.5907C59.9411 19.1827 59.8772 29.6059 64.0954 36.1342C66.3614 39.8997 70.2 42.4133 74.6061 42.3495C79.7036 42.6026 84.3614 38.897 86.3117 34.3761Z" fill="#303030"/>
        <path fill-rule="evenodd" clip-rule="evenodd" d="M167.817 55.097C169.012 56.915 170.147 58.7987 171.342 60.6206L174.803 55.097H199.789C200.984 56.915 201.995 58.7987 203.25 60.6206L206.711 55.126H274.053L264.552 61.7489H251.459L245.165 66.2099H232.83L226.475 71.1037H214.011L207.97 75.6246H197.711V89.9409H176.833V75.6575H166.621L160.516 71.1037H148.117L141.697 66.2099H129.425L123.131 61.7489H109.977L100.535 55.097H167.817Z" fill="#303030"/>
        <path fill-rule="evenodd" clip-rule="evenodd" d="M167.817 55.097C169.012 56.915 170.147 58.7987 171.342 60.6206L174.803 55.097H199.789C200.984 56.915 201.995 58.7987 203.25 60.6206L206.711 55.126H274.053L264.552 61.7489H251.459L245.165 66.2099H232.83L226.475 71.1037H214.011L207.97 75.6246H197.711V89.9409H176.833V75.6575H166.621L160.516 71.1037H148.117L141.697 66.2099H129.425L123.131 61.7489H109.977L100.535 55.097H167.817Z" fill="#303030"/>
        <path fill-rule="evenodd" clip-rule="evenodd" d="M171.215 64.3861C172.977 62.002 174.488 59.3628 176.25 56.915H198.402C200.041 59.4285 201.739 61.9382 203.376 64.4498L207.968 56.915H268.325L263.289 59.8014H227.353C226.596 60.5568 225.78 61.092 224.963 61.8435H247.115L243.844 64.5117H214.956L212.88 66.4282H229.179L225.528 69.191H204.573L202.307 71.1675L210.36 71.2312L206.899 73.7409H197.711V60.3366H176.833V73.7409H167.692C166.559 72.8618 165.362 72.1103 164.293 71.2312H172.286C171.72 70.4758 170.713 69.9754 170.02 69.22H149.124C147.891 68.3204 146.674 67.3994 145.473 66.4572H161.647C161.143 65.8312 160.326 65.0758 159.633 64.5097H130.746C129.621 63.6481 128.509 62.769 127.411 61.8725H149.628V61.8126L147.236 59.8014H111.298L106.326 56.915H166.621L171.215 64.3861Z" fill="white"/>
        <path fill-rule="evenodd" clip-rule="evenodd" d="M192.929 65.7076H181.851L179.207 61.9382H195.509L192.929 65.7076ZM186.383 74.8731L178.832 85.4199V64.6991C181.285 68.0917 183.927 71.4206 186.383 74.8731ZM188.523 74.8093C190.725 71.4206 193.245 68.0917 195.635 64.701V84.6665L188.523 74.8093ZM187.516 73.3642L183.236 67.5913H191.546L187.516 73.3642ZM182.984 82.6881L187.39 76.2545L191.984 82.6881H182.984ZM193.309 84.6046C194.316 85.7967 195.257 87.0834 196.202 88.2755H178.832L181.411 84.6046H193.309Z" fill="white"/>
    </g>
    <defs>
        <clipPath id="clip0_60:75">
            <rect width="369" height="90" fill="white"/>
        </clipPath>
    </defs>
</svg>

<svg width="369" height="90" fill="none" xmlns="http://www.w3.org/2000/svg"><g clip-path="url(#a)" fill-rule="evenodd" clip-rule="evenodd"><path d="m136.977 31.613.062.062V11.397c-.188-1.57-1.007-3.202-2.58-4.019-1.449-.69-3.209-.502-4.91-.564V1.478h20.896v5.336c-1.888.062-4.029-.313-5.223 1.256-1.321 1.507-1.385 3.557-1.385 5.523v34.09h-7.931l-23.348-32.77-.064-.064.064 23.922c0 1.422.692 2.574 1.951 3.2 1.572.63 3.525.317 5.349.317v5.396H98.523V42.29c2.097 0 5.035.415 5.917-1.51a7.052 7.052 0 0 0 .786-3.641V11.145c-.316-1.38-.786-2.762-2.171-3.578-1.259-.815-2.958-.753-4.532-.753V1.478h17.686l20.768 30.135Zm130.658 0 .064.062V11.397c-.19-1.57-1.007-3.202-2.58-4.019-1.448-.69-3.211-.502-4.909-.564V1.478h20.895v5.336c-1.888.062-4.028-.313-5.223 1.256-1.321 1.507-1.385 3.557-1.385 5.523v34.09h-7.933l-23.347-32.77-.064-.064.064 23.922c0 1.422.691 2.574 1.948 3.2 1.573.63 3.525.317 5.353.317v5.396h-21.339V42.29c2.1 0 5.036.415 5.917-1.51a7.022 7.022 0 0 0 .786-3.641V11.145c-.314-1.38-.786-2.762-2.171-3.578-1.259-.815-2.957-.753-4.532-.753V1.478h17.688l20.768 30.135Zm-42.294-24.8c-2.326-.06-5.096-.44-6.419 1.82-.627 1.07-.598 2.45-.662 3.768v25.992c.128 1.381.726 2.699 1.985 3.389 1.509.819 3.397.376 5.096.566v5.336h-23.853V42.29c2.14.06 4.596.438 6.104-1.256.632-.88.881-1.886.945-2.952V10.707c-.189-1.318-.691-2.763-2.012-3.453-.904-.44-3.37-.44-5.004-.44V1.478h23.82v5.336Zm102.337 13.939h-5.413c.317-5.086-.25-10.109-4.782-12.746-1.259-.69-2.708-1.068-4.218-1.194h-12.541v13.876c3.132 0 7.143.25 8.636-2.135.692-1.63.508-3.735.508-5.65h4.845v21.599h-4.845c-.128-2.7.439-5.777-2.14-7.284-1.513-.784-4.581-.753-7.002-.753v15.823h14.617c2.519-.19 5.159-1.322 6.23-3.831 1.009-2.448.692-6.529.692-10.014h5.413v19.24h-43.867V42.29c2.456-.128 5.413.626 6.738-1.888.503-1.254.468-2.699.468-4.142V10.769c0-1.366-.722-2.7-2.043-3.453-1.513-.753-3.465-.376-5.163-.502V1.478h43.867v19.274Z" fill="#303030"/><path d="M95.753 36.698c4.342-6.528 4.658-16.89.63-23.669-2.708-5.085-7.93-9.668-13.218-11.553-8.81-3.39-19.07-1.005-25.616 5.587-6.924 6.592-9.19 17.203-5.665 26.055 3.148 8.101 11.582 14.819 20.204 15.509 9.756.94 18.442-3.64 23.665-11.929Zm93.527-35.22L187.642 3.3c-6.043-3.519-15.043-4.46-21.653-1.573-8.748 3.327-15.546 12.305-15.924 21.598-.693 9.417 3.903 18.143 12.335 22.475 6.986 3.768 18.19 4.334 24.673-.69l1.133 2.574h7.018V32.618l.283-1.507c.695-1.815 2.576-1.813 4.362-1.811.313 0 .623 0 .923-.009v-5.336h-22.214v5.336c.566.042 1.16.028 1.755.014 1.189-.028 2.378-.056 3.342.363a2.926 2.926 0 0 1 1.889 2.512c0 .264.004.552.008.854.027 2.041.063 4.733-1.015 5.299-3.525 3.957-9.44 4.961-14.224 3.014-5.727-2.384-8.81-8.35-9.691-13.938-.943-7.347.881-14.693 7.175-19.024 4.029-2.512 10.385-2.827 14.288.062 3.525 2.513 4.909 6.279 4.909 10.486h6.798V1.479h-4.532Zm173.418 2.034c-.225.37-.448.738-.655 1.105-1.135-.817-2.206-1.57-3.402-2.135-6.419-3.201-15.86-2.699-21.523 1.759-4.656 3.641-5.917 9.418-4.596 14.942 2.03 6.668 8.687 7.911 14.694 9.033.892.166 1.77.33 2.616.509.756.183 1.563.33 2.387.48 3.703.677 7.723 1.41 8.753 5.673.44 2.765-1.195 5.213-3.461 6.469-4.532 2.324-10.386.943-14.287-1.635-3.779-2.322-5.413-6.151-5.537-10.295h-5.667v18.269h4.532l1.135-2.95c2.39 1.255 4.846 2.388 7.489 3.14 6.608 1.694 15.041 1.694 20.015-3.513 3.84-3.957 4.532-10.172 3.083-15.383-2.565-6.948-9.445-8.246-15.89-9.462-1.301-.245-2.584-.487-3.811-.772-2.076-.317-4.028-.817-5.791-1.886-1.444-1.004-2.389-2.45-2.389-4.144 0-1.758.881-3.201 2.389-4.27 3.401-2.322 8.685-1.881 12.336-.312 4.156 1.82 6.418 6.153 6.925 10.42h5.663V1.479c-.69 0-1.424.017-2.125.034-.639.015-1.25.03-1.775.03-.322.676-.718 1.327-1.108 1.97ZM29.341 6.829c.784.037 1.564.074 2.28-.015V1.478H6.633v5.336c.588.023 1.193.02 1.8.017 1.017-.004 2.038-.009 2.984.109 1.007.187 2.233.815 2.423 1.945v27.5c0 1.446-.033 2.953-.724 4.147-1.081 1.849-3.13 1.806-5.152 1.765-.449-.01-.897-.019-1.333-.007v5.396H48.11v-19.84h-5.162l.003.933c.012 2.648.024 5.302-.822 7.606-2.095 6.177-8.228 6.033-14.037 5.897-1.515-.035-3.009-.07-4.403.008V11.963c-.062-1.194 0-2.45.63-3.39 1.037-1.934 3.042-1.838 5.022-1.744Zm56.97 27.547c3.276-6.717 2.834-16.513-1.446-22.603-2.076-2.95-5.035-4.833-8.309-5.336-5.223-.753-9.88 1.697-12.525 6.154-4.09 6.592-4.154 17.015.064 23.543 2.266 3.766 6.105 6.28 10.511 6.215 5.098.254 9.755-3.452 11.706-7.973ZM167.817 55.097c1.195 1.818 2.33 3.702 3.525 5.524l3.461-5.524h24.986c1.195 1.818 2.206 3.702 3.461 5.524l3.461-5.495h67.342l-9.501 6.623h-13.093l-6.294 4.46H232.83l-6.355 4.895h-12.464l-6.041 4.52h-10.259v14.317h-20.878V75.657h-10.212l-6.105-4.553h-12.399l-6.42-4.894h-12.272l-6.294-4.461h-13.154l-9.442-6.652h67.282Z" fill="#303030"/><path d="M167.817 55.097c1.195 1.818 2.33 3.702 3.525 5.524l3.461-5.524h24.986c1.195 1.818 2.206 3.702 3.461 5.524l3.461-5.495h67.342l-9.501 6.623h-13.093l-6.294 4.46H232.83l-6.355 4.895h-12.464l-6.041 4.52h-10.259v14.317h-20.878V75.657h-10.212l-6.105-4.553h-12.399l-6.42-4.894h-12.272l-6.294-4.461h-13.154l-9.442-6.652h67.282Z" fill="#303030"/><path d="M171.215 64.386c1.762-2.384 3.273-5.023 5.035-7.471h22.152c1.639 2.514 3.337 5.023 4.974 7.535l4.592-7.535h60.357l-5.036 2.886h-35.936c-.757.756-1.573 1.291-2.39 2.042h22.152l-3.271 2.669h-28.888l-2.076 1.916h16.299l-3.651 2.763h-20.955l-2.266 1.977 8.053.063-3.461 2.51h-9.188V60.337h-20.878V73.74h-9.141c-1.133-.88-2.33-1.63-3.399-2.51h7.993c-.566-.755-1.573-1.256-2.266-2.011h-20.896c-1.233-.9-2.45-1.82-3.651-2.763h16.174c-.504-.626-1.321-1.381-2.014-1.947h-28.887a136.576 136.576 0 0 1-3.335-2.638h22.217v-.06l-2.392-2.01h-35.938l-4.972-2.887h60.295l4.594 7.471Z" fill="#fff"/><path d="M192.929 65.708h-11.078l-2.644-3.77h16.302l-2.58 3.77Zm-6.546 9.165-7.551 10.547V64.7c2.453 3.392 5.095 6.72 7.551 10.173Zm2.14-.064c2.202-3.388 4.722-6.717 7.112-10.108v19.966l-7.112-9.858Zm-1.007-1.445-4.28-5.773h8.31l-4.03 5.773Zm-4.532 9.324 4.406-6.434 4.594 6.434h-9Zm10.325 1.917c1.007 1.192 1.948 2.478 2.893 3.67h-17.37l2.579-3.67h11.898Z" fill="#fff"/></g><defs><clipPath id="a"><path fill="#fff" d="M0 0h369v90H0z"/></clipPath></defs></svg>
